X:2
T:Jackson's Square. ThoH.002
Q:1/2=90
M:C
L:1/8
B:Thompson's Compleat Collection of 120 Favourite Hornpipes.
Z:Village Music Project, Simon Wilson 2016
O:England.
K:Bb
|:bab|(fd)(ec) (dB)(cA)|B2B3BAB|(FD)(EC) (DB,)(CA,)|B,2B,4CD|
(EFGA)B2(cd)|(ecBc)A2fe|d2(cB) (AF)(G=E)|F2F2-F:|
|:gfe|(dcBA) (GFED)|E2E2-Eagf|(=edcB) (AGF=E)|F2F2-Fbab|
(fd)(ec) B2(gf)|(edcB) (AGFE)|(DFBF) (GecA)|B2B,2-B,:|

